static/characters/youkanman/back-walking-2.svg

<svg height="182" width="160" xmlns="http://www.w3.org/2000/svg" xml:space="preserve" style="fill-rule:evenodd;clip-rule:evenodd;stroke-linecap:round;stroke-linejoin:round;stroke-miterlimit:1.5"><g opacity=".95"><path d="m542.173 844.83.977-139.625 145.559-72.779 45.537 22.827 1.221 137.42-148.739 76.039-44.555-23.882Z" style="fill:#6c4444;stroke:#000;stroke-width:2.76px" transform="matrix(-.36251 0 0 .36251 318.876 -181.878)"/><path style="fill:#5e3b3b;fill-rule:nonzero" d="M1566 856.517h86.762v86.762H1566z" transform="matrix(-.04856 -.02428 0 .04856 155.903 58.9)"/><path style="fill:#5e3b3b;fill-rule:nonzero" d="M791.193 856.517h86.762v86.762h-86.762z" transform="matrix(-.04856 -.02428 0 .04856 151.612 56.231)"/><path d="M247.191 715.002c90.195 60.234 197.554 149.405 288.702 259.065l18.286 60.383-74.247-33.88c-33.104-49.287-182-185.356-157.859-164.453" style="fill:#5e3b3b;fill-rule:nonzero" transform="matrix(.05125 -.0179 -.03169 -.0308 63.108 110.58)"/><path d="M322.073 836.117c-24.141-20.903-43.575-33.69-67.575-51.252-38.3-28.025-117.896-65.142-127.555-69.639-19.445-9.054-52.727-14.294-52.727-14.294-6.251-27.276-30.118-78.437-4.062-72.062 28.481 6.969 96.281 32.202 177.037 86.132" style="fill-rule:nonzero" transform="matrix(.05125 -.0179 -.03169 -.0308 63.108 110.58)"/><path d="M547.667 1527.12c151.871 176.6 329.653 364.07 373.368 158.63 1.698-13.06 9.491-36.86 36.473-15.81 2.802 2.18 19.918 32.33 19.918 32.33-36.519 130.59-94.101 158.94-195.456 100.89-33.193-19.02-247.901-222.58-280.698-281.39" style="fill:#5e3b3b;fill-rule:nonzero" transform="matrix(-.04856 -.02428 0 .04856 124.212 51.881)"/><path d="m1382.65 1834.37-1.1-150.4c-2.48-17.48 13.67-35.09 39.36-14.8 3.04 2.4 15.25 25.91 15.25 25.91l.96 132.89" style="fill:#5e3b3b;fill-rule:nonzero" transform="matrix(-.04856 -.02428 0 .04856 167.912 73.509)"/><path d="m1437.12 1827.97 2.6 357.81c-1.46 20.05-23.49 24.15-40.58 10.65-2.8-2.21-14.03-26.28-14.03-26.28l-2.46-335.78" style="fill-rule:nonzero" transform="matrix(-.04856 -.02428 0 .04856 167.912 73.509)"/><path d="m1222.99 1088.56-185.63-336.965 38.33-22.195 46.41 82.727h201.77l46.41-82.727 38.34 22.195-185.63 336.965Zm-80.71-234.061 80.71 143.258 80.7-143.258h-161.41Z" style="fill:#5e3b3b;fill-rule:nonzero" transform="matrix(-.04856 -.02428 0 .04856 154.261 59.221)"/><path d="m702.177 596.153 512.733 2.672v41.795H700.395l1.782-44.467Z" style="fill-rule:nonzero" transform="matrix(-.04856 -.02428 0 .04856 138.903 67.633)"/><path d="m702.177 596.153 512.733 2.672v41.795H700.395l1.782-44.467Z" style="fill-rule:nonzero" transform="matrix(-.04856 -.02428 0 .04856 129.195 47.33)"/><path d="m702.177 596.153 512.733 2.672v41.795H700.395l1.782-44.467Z" style="fill-rule:nonzero" transform="matrix(-.04856 -.02428 0 .04856 154.145 59.564)"/><path d="m702.177 596.153 512.733 2.672v41.795H700.395l1.782-44.467Z" style="fill:#5e3b3b;fill-rule:nonzero" transform="matrix(-.04856 -.02428 0 .04856 154.858 109.84)"/><path d="m702.177 596.153 512.733 2.672v41.795H700.395l1.782-44.467Z" style="fill:#5e3b3b;fill-rule:nonzero" transform="matrix(-.04856 -.02428 0 .04856 129.873 97.348)"/><path d="m702.177 596.153 512.733 2.672v41.795H700.395l1.782-44.467Z" style="fill-rule:nonzero" transform="matrix(-.02872 .01417 0 .04856 142.104 33.325)"/><path d="m702.177 596.153 512.733 2.672v41.795H700.395l1.782-44.467Z" style="fill-rule:nonzero" transform="matrix(-.02872 .01417 0 .04856 88.575 7.824)"/><path d="m702.177 596.153 512.733 2.672v41.795H700.395l1.782-44.467Z" style="fill:#5e3b3b;fill-rule:nonzero" transform="matrix(-.02872 .01417 0 .04856 89.323 57.807)"/><path d="m702.177 596.153 512.733 2.672v41.795H700.395l1.782-44.467Z" style="fill-rule:nonzero" transform="matrix(-.02872 .01417 0 .04856 142.88 84.586)"/><path style="fill-rule:nonzero" d="M625.74 644.656h40.354v512.502H625.74z" transform="matrix(-.04856 -.02428 0 .04856 137.545 66.997)"/><path style="fill-rule:nonzero" d="M625.74 644.656h40.354v512.502H625.74z" transform="matrix(-.04856 -.02428 0 .04856 153.58 83.386)"/><path style="fill-rule:nonzero" d="M625.74 644.656h40.354v512.502H625.74z" transform="matrix(-.04856 -.02428 0 .04856 153.453 58.202)"/><path style="fill:#5e3b3b;fill-rule:nonzero" d="M625.74 644.656h40.354v512.502H625.74z" transform="matrix(-.04856 -.02428 0 .04856 100.576 33.844)"/><path style="fill:#5e3b3b;fill-rule:nonzero" d="M625.74 644.656h40.354v512.502H625.74z" transform="matrix(-.04856 -.02428 0 .04856 100.576 57.557)"/><path d="m1216.93 597.043 516.3 2.673-1.78 40.904h-514.52v-43.577Z" style="fill-rule:nonzero" transform="matrix(-.04856 -.02428 0 .04856 139.319 68.08)"/><path style="fill-rule:nonzero" d="M1779.88 644.656h40.354v512.502h-40.354z" transform="matrix(-.04856 -.02428 0 .04856 139.548 67.956)"/><path style="fill-rule:nonzero" d="M583.367 1161.19h40.354v512.502h-40.354z" transform="matrix(-.04856 -.02428 0 .04856 135.487 65.443)"/><path d="M664.076 1651.5H1178.6v43.58l-514.524-3.57v-40.01Z" style="fill-rule:nonzero" transform="matrix(-.04856 -.02428 0 .04856 136.858 66.88)"/><path d="M1180.61 1651.5h514.52l-3.56 36.45-505.61 8.02-5.35-44.47Z" style="fill-rule:nonzero" transform="matrix(-.04856 -.02428 0 .04856 136.267 66.237)"/><path d="M292.815 789.932c108.957 68.602 188.321 137.878 238.092 207.825l-50.443 42.373c-51.116-73.984-127.79-144.604-230.021-211.861l-31.176-31.021 32.085-38.249 41.463 30.933Z" style="fill-rule:nonzero" transform="matrix(-.04856 -.02428 0 .04856 139.008 62.811)"/><path style="fill-rule:nonzero" d="M1737.51 1161.19h40.354v512.502h-40.354z" transform="matrix(-.04856 -.02428 0 .04856 137.61 66.88)"/></g></svg>

<?xml version="1.0" encoding="UTF-8" standalone="no"?>
<!DOCTYPE svg PUBLIC "-//W3C//DTD SVG 1.1//EN" "http://www.w3.org/Graphics/SVG/1.1/DTD/svg11.dtd">
<svg height="182" width="160" viewBox="0 0 160 182" version="1.1" xmlns="http://www.w3.org/2000/svg" xmlns:xlink="http://www.w3.org/1999/xlink" xml:space="preserve" xmlns:serif="http://www.serif.com/" style="fill-rule:evenodd;clip-rule:evenodd;stroke-linecap:round;stroke-linejoin:round;stroke-miterlimit:1.5;">
    <g id="BackWalking2" transform="matrix(0.0485587,-0.0242793,0,0.0485587,36.7448,67.0945)">
        <g opacity="0.95">
            <g transform="matrix(-7.46545,-3.73272,0,7.46545,5810.11,-2222.19)">
                <path d="M542.173,844.83L543.15,705.205L688.709,632.426L734.246,655.253L735.467,792.673L586.728,868.712L542.173,844.83Z" style="fill:rgb(108,68,68);stroke:black;stroke-width:2.76px;"/>
            </g>
            <g transform="matrix(-1,-1,-4.44089e-16,1,2453.9,1058.21)">
                <rect x="1566" y="856.517" width="86.762" height="86.762" style="fill:rgb(94,59,59);fill-rule:nonzero;"/>
            </g>
            <g transform="matrix(-1,-1,-4.44089e-16,1,2365.54,959.052)">
                <rect x="791.193" y="856.517" width="86.762" height="86.762" style="fill:rgb(94,59,59);fill-rule:nonzero;"/>
            </g>
            <g transform="matrix(1.05552,0.159137,-0.652592,-0.960561,542.914,1166.97)">
                <path d="M247.191,715.002C337.386,775.236 444.745,864.407 535.893,974.067L554.179,1034.45L479.932,1000.57C446.828,951.283 297.932,815.214 322.073,836.117" style="fill:rgb(94,59,59);fill-rule:nonzero;"/>
            </g>
            <g transform="matrix(1.05552,0.159137,-0.652592,-0.960561,542.914,1166.97)">
                <path d="M322.073,836.117C297.932,815.214 278.498,802.427 254.498,784.865C216.198,756.84 136.602,719.723 126.943,715.226C107.498,706.172 74.216,700.932 74.216,700.932C67.965,673.656 44.098,622.495 70.154,628.87C98.635,635.839 166.435,661.072 247.191,715.002" style="fill-rule:nonzero;"/>
            </g>
            <g transform="matrix(-1,-1,0,1,1801.27,587.34)">
                <path d="M547.667,1527.12C699.538,1703.72 877.32,1891.19 921.035,1685.75C922.733,1672.69 930.526,1648.89 957.508,1669.94C960.31,1672.12 977.426,1702.27 977.426,1702.27C940.907,1832.86 883.325,1861.21 781.97,1803.16C748.777,1784.14 534.069,1580.58 501.272,1521.77" style="fill:rgb(94,59,59);fill-rule:nonzero;"/>
            </g>
            <g transform="matrix(-1,-1,0,1,2701.2,1482.69)">
                <path d="M1382.65,1834.37L1381.55,1683.97C1379.07,1666.49 1395.22,1648.88 1420.91,1669.17C1423.95,1671.57 1436.16,1695.08 1436.16,1695.08L1437.12,1827.97" style="fill:rgb(94,59,59);fill-rule:nonzero;"/>
            </g>
            <g transform="matrix(-1,-1,0,1,2701.2,1482.69)">
                <path d="M1437.12,1827.97L1439.72,2185.78C1438.26,2205.83 1416.23,2209.93 1399.14,2196.43C1396.34,2194.22 1385.11,2170.15 1385.11,2170.15L1382.65,1834.37" style="fill-rule:nonzero;"/>
            </g>
            <g transform="matrix(-1,-1,-4.44089e-16,1,2420.09,1047.9)">
                <path d="M1222.99,1088.56L1037.36,751.595L1075.69,729.4L1122.1,812.127L1323.87,812.127L1370.28,729.4L1408.62,751.595L1222.99,1088.56ZM1142.28,854.499L1222.99,997.757L1303.69,854.499L1142.28,854.499Z" style="fill:rgb(94,59,59);fill-rule:nonzero;"/>
            </g>
            <g transform="matrix(-1,-1,0,1,2103.8,1062.98)">
                <path d="M702.177,596.153L1214.91,598.825L1214.91,640.62L700.395,640.62L702.177,596.153Z" style="fill-rule:nonzero;"/>
            </g>
            <g transform="matrix(-1,-1,0,1,1903.88,544.921)">
                <path d="M702.177,596.153L1214.91,598.825L1214.91,640.62L700.395,640.62L702.177,596.153Z" style="fill-rule:nonzero;"/>
            </g>
            <g transform="matrix(-1,-1,0,1,2417.69,1053.76)">
                <path d="M702.177,596.153L1214.91,598.825L1214.91,640.62L700.395,640.62L702.177,596.153Z" style="fill-rule:nonzero;"/>
            </g>
            <g transform="matrix(-1,-1,0,1,2432.37,2096.48)">
                <path d="M702.177,596.153L1214.91,598.825L1214.91,640.62L700.395,640.62L702.177,596.153Z" style="fill:rgb(94,59,59);fill-rule:nonzero;"/>
            </g>
            <g transform="matrix(-1,-1,0,1,1917.85,1581.96)">
                <path d="M702.177,596.153L1214.91,598.825L1214.91,640.62L700.395,640.62L702.177,596.153Z" style="fill:rgb(94,59,59);fill-rule:nonzero;"/>
            </g>
            <g transform="matrix(-0.591355,-0.00377795,-2.62615e-16,1,2169.73,389.419)">
                <path d="M702.177,596.153L1214.91,598.825L1214.91,640.62L700.395,640.62L702.177,596.153Z" style="fill-rule:nonzero;"/>
            </g>
            <g transform="matrix(-0.591355,-0.00377795,-2.62615e-16,1,1067.38,-686.905)">
                <path d="M702.177,596.153L1214.91,598.825L1214.91,640.62L700.395,640.62L702.177,596.153Z" style="fill-rule:nonzero;"/>
            </g>
            <g transform="matrix(-0.591355,-0.00377795,-2.62615e-16,1,1082.77,350.13)">
                <path d="M702.177,596.153L1214.91,598.825L1214.91,640.62L700.395,640.62L702.177,596.153Z" style="fill:rgb(94,59,59);fill-rule:nonzero;"/>
            </g>
            <g transform="matrix(-0.591355,-0.00377795,-2.62615e-16,1,2185.72,1453.08)">
                <path d="M702.177,596.153L1214.91,598.825L1214.91,640.62L700.395,640.62L702.177,596.153Z" style="fill-rule:nonzero;"/>
            </g>
            <g transform="matrix(-1,-1,0,1,2075.84,1035.91)">
                <rect x="625.74" y="644.656" width="40.354" height="512.502" style="fill-rule:nonzero;"/>
            </g>
            <g transform="matrix(-1,-1,0,1,2406.07,1538.54)">
                <rect x="625.74" y="644.656" width="40.354" height="512.502" style="fill-rule:nonzero;"/>
            </g>
            <g transform="matrix(-1,-1,0,1,2403.44,1018.59)">
                <rect x="625.74" y="644.656" width="40.354" height="512.502" style="fill-rule:nonzero;"/>
            </g>
            <g transform="matrix(-1,-1,2.76056e-31,1,1314.51,-27.4928)">
                <rect x="625.74" y="644.656" width="40.354" height="512.502" style="fill:rgb(94,59,59);fill-rule:nonzero;"/>
            </g>
            <g transform="matrix(-1,-1,0,1,1314.51,460.837)">
                <rect x="625.74" y="644.656" width="40.354" height="512.502" style="fill:rgb(94,59,59);fill-rule:nonzero;"/>
            </g>
            <g transform="matrix(-1,-1,0,1,2112.37,1076.47)">
                <path d="M1216.93,597.043L1733.23,599.716L1731.45,640.62L1216.93,640.62L1216.93,597.043Z" style="fill-rule:nonzero;"/>
            </g>
            <g transform="matrix(-1,-1,0,1,2117.1,1076.28)">
                <rect x="1779.88" y="644.656" width="40.354" height="512.502" style="fill-rule:nonzero;"/>
            </g>
            <g transform="matrix(-1,-1,0,1,2033.47,982.715)">
                <rect x="583.367" y="1161.19" width="40.354" height="512.502" style="fill-rule:nonzero;"/>
            </g>
            <g transform="matrix(-1,-1,0,1,2061.69,1026.41)">
                <path d="M664.076,1651.5L1178.6,1651.5L1178.6,1695.08L664.076,1691.51L664.076,1651.5Z" style="fill-rule:nonzero;"/>
            </g>
            <g transform="matrix(-1,-1,0,1,2049.52,1007.09)">
                <path d="M1180.61,1651.5L1695.13,1651.5L1691.57,1687.95L1185.96,1695.97L1180.61,1651.5Z" style="fill-rule:nonzero;"/>
            </g>
            <g transform="matrix(-1,-1,0,1,2105.97,964.769)">
                <path d="M292.815,789.932C401.772,858.534 481.136,927.81 530.907,997.757L480.464,1040.13C429.348,966.146 352.674,895.526 250.443,828.269L219.267,797.248L251.352,758.999L292.815,789.932Z" style="fill-rule:nonzero;"/>
            </g>
            <g transform="matrix(-1,-1,0,1,2077.2,1034.17)">
                <rect x="1737.51" y="1161.19" width="40.354" height="512.502" style="fill-rule:nonzero;"/>
            </g>
        </g>
    </g>
</svg>
